Newaita-dark/actions/16/mesh-gradient.svg

<svg height="16" viewBox="0 0 16 16" width="16" xmlns="http://www.w3.org/2000/svg"><g fill="#e0e0e0"><path d="m3.3125 4.851562 7.027344-1.882812c.351562-.09375.714844.113281.808594.46875l1.886718 7.027344c.09375.351562-.117187.714844-.46875.808594l-7.03125 1.886718c-.351562.09375-.714844-.117187-.808594-.46875l-1.882812-7.03125c-.09375-.351562.113281-.714844.46875-.808594zm0 0" fill-opacity=".313726"/><path d="m9.261719 2.109375v4.628906h4.628906v-3.96875c0-.363281-.292969-.660156-.660156-.660156zm1.324219 1.324219h1.652343c.183594 0 .332031.148437.332031.328125v1.65625h-1.984374zm0 0"/><path d="m6.613281 2.109375v4.628906h-4.628906v-3.96875c0-.363281.296875-.660156.660156-.660156zm-1.320312 1.324219h-1.65625c-.179688 0-.328125.148437-.328125.328125v1.65625h1.984375zm0 0"/><path d="m9.261719 14.015625v-4.628906h4.628906v3.96875c0 .367187-.292969.660156-.660156.660156zm1.324219-1.320313h1.652343c.183594 0 .332031-.148437.332031-.332031v-1.652343h-1.984374zm0 0"/><path d="m6.613281 14.015625v-4.628906h-4.628906v3.96875c0 .367187.296875.660156.660156.660156zm-1.320312-1.320313h-1.65625c-.179688 0-.328125-.148437-.328125-.332031v-1.652343h1.984375zm0 0"/></g></svg>

<?xml version="1.0" encoding="UTF-8"?>
<svg xmlns="http://www.w3.org/2000/svg" xmlns:xlink="http://www.w3.org/1999/xlink" width="16px" height="16px" viewBox="0 0 16 16" version="1.1">
<g id="surface1">
<path style=" stroke:none;fill-rule:nonzero;fill:rgb(87.843138%,87.843138%,87.843138%);fill-opacity:0.313726;" d="M 3.3125 4.851562 L 10.339844 2.96875 C 10.691406 2.875 11.054688 3.082031 11.148438 3.4375 L 13.035156 10.464844 C 13.128906 10.816406 12.917969 11.179688 12.566406 11.273438 L 5.535156 13.160156 C 5.183594 13.253906 4.820312 13.042969 4.726562 12.691406 L 2.84375 5.660156 C 2.75 5.308594 2.957031 4.945312 3.3125 4.851562 Z M 3.3125 4.851562 "/>
<path style=" stroke:none;fill-rule:nonzero;fill:rgb(87.843138%,87.843138%,87.843138%);fill-opacity:1;" d="M 9.261719 2.109375 L 9.261719 6.738281 L 13.890625 6.738281 L 13.890625 2.769531 C 13.890625 2.40625 13.597656 2.109375 13.230469 2.109375 Z M 10.585938 3.433594 L 12.238281 3.433594 C 12.421875 3.433594 12.570312 3.582031 12.570312 3.761719 L 12.570312 5.417969 L 10.585938 5.417969 Z M 10.585938 3.433594 "/>
<path style=" stroke:none;fill-rule:nonzero;fill:rgb(87.843138%,87.843138%,87.843138%);fill-opacity:1;" d="M 6.613281 2.109375 L 6.613281 6.738281 L 1.984375 6.738281 L 1.984375 2.769531 C 1.984375 2.40625 2.28125 2.109375 2.644531 2.109375 Z M 5.292969 3.433594 L 3.636719 3.433594 C 3.457031 3.433594 3.308594 3.582031 3.308594 3.761719 L 3.308594 5.417969 L 5.292969 5.417969 Z M 5.292969 3.433594 "/>
<path style=" stroke:none;fill-rule:nonzero;fill:rgb(87.843138%,87.843138%,87.843138%);fill-opacity:1;" d="M 9.261719 14.015625 L 9.261719 9.386719 L 13.890625 9.386719 L 13.890625 13.355469 C 13.890625 13.722656 13.597656 14.015625 13.230469 14.015625 Z M 10.585938 12.695312 L 12.238281 12.695312 C 12.421875 12.695312 12.570312 12.546875 12.570312 12.363281 L 12.570312 10.710938 L 10.585938 10.710938 Z M 10.585938 12.695312 "/>
<path style=" stroke:none;fill-rule:nonzero;fill:rgb(87.843138%,87.843138%,87.843138%);fill-opacity:1;" d="M 6.613281 14.015625 L 6.613281 9.386719 L 1.984375 9.386719 L 1.984375 13.355469 C 1.984375 13.722656 2.28125 14.015625 2.644531 14.015625 Z M 5.292969 12.695312 L 3.636719 12.695312 C 3.457031 12.695312 3.308594 12.546875 3.308594 12.363281 L 3.308594 10.710938 L 5.292969 10.710938 Z M 5.292969 12.695312 "/>
</g>
</svg>
